packages/Snappmarket/src/TruckFlatIcon/index.svg

<svg width="19px" height="11px" viewBox="0 0 19 11" version="1.1" xmlns="http://www.w3.org/2000/svg">
<path d="M13.1742187,0.108190157 C14.7764429,0.477746424 15.3893317,1.40899463 16.1577338,2.69073966 L13.1742187,2.69073966 L13.1742187,0.108190157 Z M3.81071045,2.79836925 C4.12441588,2.79836925 4.3521167,2.94888248 4.3521167,3.30064065 C4.3521167,3.59732272 4.11059876,3.83794771 3.81226136,3.83878858 L0.54140625,3.83878858 C0.242363901,3.83878858 -2.18491891e-13,4.07983401 -2.18491891e-13,4.37693652 C-2.18491891e-13,4.67417916 0.242363901,4.91508445 0.54140625,4.91508445 L5.4140625,4.91508445 C5.71592467,4.91508445 5.95758363,5.15584961 5.95758363,5.45323238 C5.95758363,5.75047502 5.71521973,5.99138031 5.41617738,5.99138031 L0.54140625,5.99138031 C0.242363901,5.99138031 -2.18491891e-13,6.23228561 -2.18491891e-13,6.52952825 C-2.18491891e-13,6.82677089 0.242363901,7.06767618 0.54140625,7.06767618 L1.7325,7.06767618 L1.7325,8.68211998 C1.7325,8.97936261 1.9748639,9.22026791 2.27390625,9.22026791 L3.36221742,9.22026791 C3.55622132,10.170155 4.40061768,10.8705882 5.39601562,10.8705882 C6.39141357,10.8705882 7.23580993,10.170155 7.42981383,9.22026791 L12.9270612,9.22026791 C13.1210651,10.170155 13.9654614,10.8705882 14.9608594,10.8705882 C15.9562573,10.8705882 16.8006537,10.170155 16.9946576,9.22026791 L17.9385937,9.22026791 C18.2376361,9.22026791 18.48,8.97936261 18.48,8.68211998 L18.48,5.45323238 C18.48,3.87424468 16.8044604,3.76941794 16.8029095,3.76703553 L12.6328125,3.76703553 C12.3337702,3.76703553 12.0914062,3.52613023 12.0914062,3.22888759 L12.0914062,1.0658141e-15 L2.27390625,1.0658141e-15 C1.9748639,1.0658141e-15 1.7325,0.240905294 1.7325,0.538147932 L1.7325,1.72207338 L1.0828125,1.72207338 C0.783770151,1.72207338 0.54140625,1.96297868 0.54140625,2.26022132 C0.54140625,2.55746395 0.783770151,2.79836925 1.0828125,2.79836925 L3.81071045,2.79836925 Z M15.6627136,8.11005753 C16.0502985,8.49530978 16.0502985,9.12020605 15.6627136,9.50545829 C15.0392505,10.1251693 13.9682812,9.68428037 13.9682812,8.80768783 C13.9682812,7.93123542 15.0392505,7.49034653 15.6627136,8.11005753 L15.6627136,8.11005753 Z M6.09786985,8.11005753 C6.48545472,8.49530978 6.48545472,9.12020605 6.09786985,9.50545829 C5.47440674,10.1251693 4.4034375,9.68428037 4.4034375,8.80768783 C4.4034375,7.93123542 5.47440674,7.49034653 6.09786985,8.11005753 L6.09786985,8.11005753 Z" id="Shape"/>
</svg>

<svg viewBox="0 0 19 11" xmlns="http://www.w3.org/2000/svg">
  <path d="M13.174.108c1.602.37 2.215 1.301 2.984 2.583h-2.984V.108zm-9.363 2.69c.313 0 .541.15.541.503a.54.54 0 01-.54.538H.542A.54.54 0 000 4.377a.54.54 0 00.541.538h4.873a.54.54 0 01.544.538.54.54 0 01-.542.538H.541A.54.54 0 000 6.53a.54.54 0 00.541.538h1.191v1.614a.54.54 0 00.542.538h1.088a2.073 2.073 0 002.034 1.65c.995 0 1.84-.7 2.034-1.65h5.497a2.073 2.073 0 002.034 1.65c.995 0 1.84-.7 2.034-1.65h.944a.54.54 0 00.541-.538V5.453c0-1.579-1.676-1.684-1.677-1.686h-4.17a.54.54 0 01-.542-.538V0H2.274a.54.54 0 00-.542.538v1.184h-.65a.54.54 0 00-.54.538.54.54 0 00.54.538h2.729zM15.663 8.11a.983.983 0 010 1.395c-.624.62-1.695.18-1.695-.697s1.071-1.318 1.695-.698zm-9.565 0a.983.983 0 010 1.395c-.624.62-1.695.18-1.695-.697S5.474 7.49 6.098 8.11z"/>
</svg>
